X: 18863
T: In Flight
R: jig
M: 6/8
K: Emajor
|:E3 EFG|FGB AGE|CDE B,3|CDE FDB,|
E3 EFG|FGB AGE|1 cde B2 G|FGF FED:|2 c2 B3G|FGA GE(F||
|:F3) DEF|BFE DEC|A,CE DEC|B,CD FED|
CEG FGE|DFB AGE|1 c2 B3G|FGA GE(F:|2 c2 B3G|FGF FED||

